X:1
T:Morning Tea
M:2/4
L:1/8
Q:1/4=132
C: Paul Gitlitz 2002
B:Hunters and Gatherers
N:I usually have green tea in the morning.
K:Bm
"Bm"B/c/d/e/ vfb|"Bm" fe "F#m"vcA|"F#m"A/B/c/d/ "A"ved |"A"ca "Bm"vb2|!
"Bm"B/c/d/e/ vfb|"Bm"  fe "F#m"vcA|"F#m"A/B/c/d/ "A"ved |"A"({cd}c)A "Bm"vB2:|!
:"Bm"F/B/d/B/ "F#m"vcA| "A"cA "Bm"vBF|"Bm"F/B/d/B/ "F#m"vce| "A"cA "Bm"vB2|!
"Bm"F/B/d/B/ "F#m"vcA|"A" cA "Bm"vBF|1"Bm"F/B/d/f/ "F#m"ved| "A"({cd}c)A "B
m"vB2:|2"Bm"F/B/d/f/ "A"ved| "F#m"ca "Bm"vb2|]
% Written by ABC2Win  2.2.109 on 1/13/2006
